svg/screwdriver.svg

<svg xmlns="http://www.w3.org/2000/svg" viewBox="0 0 24 24"><path d="M18 1.83c-.5 0-1 .17-1.41.58L8 11l1.5 1.5L6 16H4l-2 4 2 2 4-2v-2l3.5-3.5L13 16l8.59-8.59c.62-.91.78-2.04 0-2.82l-2.18-2.18A1.95 1.95 0 0 0 18 1.83M18 4l2 2-7 7-2-2z"/></svg>

<?xml version="1.0" encoding="UTF-8"?><!DOCTYPE svg PUBLIC "-//W3C//DTD SVG 1.1//EN" "http://www.w3.org/Graphics/SVG/1.1/DTD/svg11.dtd"><svg xmlns="http://www.w3.org/2000/svg" xmlns:xlink="http://www.w3.org/1999/xlink" version="1.1" id="mdi-screwdriver" width="24" height="24" viewBox="0 0 24 24"><path d="M18,1.83C17.5,1.83 17,2 16.59,2.41C13.72,5.28 8,11 8,11L9.5,12.5L6,16H4L2,20L4,22L8,20V18L11.5,14.5L13,16C13,16 18.72,10.28 21.59,7.41C22.21,6.5 22.37,5.37 21.59,4.59L19.41,2.41C19,2 18.5,1.83 18,1.83M18,4L20,6L13,13L11,11L18,4Z" /></svg>
